X: 1
T: Untitled Balkan Tune
O: trad. transcribed Shana Aisenberg
R: lesnoto
S: Fiddle Hell Online 2022-3-25 handout for Shana Aisenberg workshop
Z: 2022 John Chambers <jc:trillian.mit.edu>
M: 7/8
L: 1/8
K: D
|: AAA G2 F2 | EEE E2 F2 | GGG F2 E2 | DEC D2 D2 :|
|: DEF G2 F2 | EDD DE ED | DEF G2 F2 |1 EDC D2 A2 :|2 EDC D2 D2 |]
